X:581
T: Hajazik a kukorica levele
L:1/4
M:4/4
K:Eb
G/G/A/G/ F/F/G/E/ | D<C  C z |
c G c c | B/=A/G/A/ | B G G z |
c G c c | B/=A/G/A/ | G E D z |
G/G/A/G/ F/F/G/E/ | D<C  C z |

